assets/img/braze_icons/voicemail.svg

<svg fill="none" height="24" viewBox="0 0 24 24" width="24" xmlns="http://www.w3.org/2000/svg"><path clip-rule="evenodd" d="m11 12c0 1.1256-.3719 2.1643-.9996 3h3.9992c-.6277-.8357-.9996-1.8744-.9996-3 0-2.76142 2.2386-5 5-5s5 2.23858 5 5c0 2.7603-2.2368 4.9982-4.9968 5h-.0032-12.00312c-2.75999-.0017-4.99688-2.2396-4.99688-5 0-2.76142 2.23858-5 5-5s5 2.23858 5 5z" fill="#801ed7" fill-rule="evenodd"/></svg>

<svg width="24" height="24" viewBox="0 0 24 24" fill="none" xmlns="http://www.w3.org/2000/svg">
<path fill-rule="evenodd" clip-rule="evenodd" d="M11 12C11 13.1256 10.6281 14.1643 10.0004 15H13.9996C13.3719 14.1643 13 13.1256 13 12C13 9.23858 15.2386 7 18 7C20.7614 7 23 9.23858 23 12C23 14.7603 20.7632 16.9982 18.0032 17L18 17L5.99688 17C3.23689 16.9983 1 14.7604 1 12C1 9.23858 3.23858 7 6 7C8.76142 7 11 9.23858 11 12Z" fill="#801ED7"/>
</svg>
